svgs/regular/fire-hydrant.svg

<svg xmlns="http://www.w3.org/2000/svg" viewBox="0 0 384 512"><!--! Font Awesome Pro 6.6.0 by @fontawesome - https://fontawesome.com License - https://fontawesome.com/license (Commercial License) Copyright 2024 Fonticons, Inc. --><path d="M192 0c-17.7 0-32 14.3-32 32l0 4c-45 11.6-80.4 47-92 92l-12 0c-13.3 0-24 10.7-24 24s10.7 24 24 24l272 0c13.3 0 24-10.7 24-24s-10.7-24-24-24l-12 0c-11.6-45-47-80.4-92-92l0-4c0-17.7-14.3-32-32-32zM56 464c-13.3 0-24 10.7-24 24s10.7 24 24 24l272 0c13.3 0 24-10.7 24-24s-10.7-24-24-24l-8 0 0-80 16 0c17.7 0 32-14.3 32-32l0-64c0-17.7-14.3-32-32-32l-16 0 0-48-48 0 0 256-160 0 0-256-48 0 0 48-16 0c-17.7 0-32 14.3-32 32l0 64c0 17.7 14.3 32 32 32l16 0 0 80-8 0zM248 320a56 56 0 1 0 -112 0 56 56 0 1 0 112 0z"/></svg>

<svg xmlns="http://www.w3.org/2000/svg" viewBox="0 0 384 512"><!--! Font Awesome Pro 6.4.0 by @fontawesome - https://fontawesome.com License - https://fontawesome.com/license (Commercial License) Copyright 2023 Fonticons, Inc. --><path d="M192 0c-17.7 0-32 14.3-32 32v4c-45 11.6-80.4 47-92 92H56c-13.3 0-24 10.7-24 24s10.7 24 24 24H328c13.3 0 24-10.7 24-24s-10.7-24-24-24H316c-11.6-45-47-80.4-92-92V32c0-17.7-14.3-32-32-32zM56 464c-13.3 0-24 10.7-24 24s10.7 24 24 24H328c13.3 0 24-10.7 24-24s-10.7-24-24-24h-8V384h16c17.7 0 32-14.3 32-32V288c0-17.7-14.3-32-32-32H320V208H272V464H112V208H64v48H48c-17.7 0-32 14.3-32 32v64c0 17.7 14.3 32 32 32H64v80H56zM248 320a56 56 0 1 0 -112 0 56 56 0 1 0 112 0z"/></svg>
